X:76
T:Polonäs ur Andreas Dahlgrens notbok nr 76
S:Andreas Dahlgrens
R:Polska
O:Småland
B:Andreas Dahlgrens notbok
Z:Christian Fürst
M:3/4
L:1/16
K:F
|: f2ga c4B4 | A2cA F2A2c2f2 | f2ga b2ag a2f2 | f2ef gfed c4 | f2ga c4B4 | A2cA F2A2c2f2 | 
f2ga b2ag a2f2 | efga Tg4 f4 :||: f2c2c2f2 bagf | g2c2c2g2 agfe | f2a2 c'4 c'4 | c'2b2 a2c'a f4 |
 g2ga b4 g4 | bagf efge c4 | f2ga c4 B4 | A2cA F2A2c2f2 | f2ga b2ag a2f2 | | efga Tg4 f4 :|

